X:1
T:O all ye nations of the world
T:O all ye nations of the world (John Smith)
C:John Smith
Z:p36, Book the Second,
Z:Containing Twelve Anthems
Z:and Twelve Psalm Tunes,
Z:Lavington: The Author, [c1752]
%%score [ 1 2 3 4 ]
L:1/8
M:3/2
K:Emin
V:1 treble nm="Soprano" snm="S."
V:2 treble nm="Alto" snm="A."
V:3 treble-8 transpose=-12 nm="Tenor" snm="T."
V:4 bass nm="Bass" snm="B."
V:1
 z4 | z12 | z12 | z12 | z12 | z12 | z12 | z8 E4 | (G4 F4) G4 | (A4 G4) A4 | (B4 A4) G4 | F8 B4 | %12
w: |||||||And|all _ ye|peo- * ple|ev- * ’ry-|where, Set|
w: |||||||Where-|fore _ praise|ye _ the|Lord _ our|God, Praise|
 (G4 F4) E4 | A4 F8 | E8 || z4 | z12 | z12 | z8 E4 | (G3 B A2 B2) (c A3) | (B4 A4) G4 | B8 B4 | %22
w: forth _ his|no- ble|praise,||||And|all _ _ _ ye _|peo- * ple|ev- ’ry-|
w: ye _ the|Lord al-|way,||||Where-|fore _ _ _ praise _|ye _ the|Lord our|
 (B4 F4) A4 | (G3 F E2 G2) (F G3) | (A4 G4) F4 | E8 |] %26
w: where, _ Set|forth _ _ _ his _|no- * ble|praise:|
w: God, _ Praise|ye _ _ _ the _|Lord _ al-|way.|
V:2
 z4 | z12 | z12 | z12 | z8 E4 | (^D4 E4) F4 | (G4 F4) E4 | ^D8 E4 | (E4 ^D4) E4 | (F4 E4) F4 | %10
w: ||||Praise|ye _ the|Lord _ al-|ways; And|all _ ye|peo- * ple|
w: ||||His|truth _ doth|not _ de-|cay; Where-|fore _ praise|ye _ the|
 (G4 F4) E4 | B,8 z4 | z12 | z12 | z8 || z4 | z12 | z8 F4 | (E4 D4) C4 | (B,4 C2 D2) E4 | %20
w: ev- * ’ry-|where,||||||And|all _ ye|peo- * * ple|
w: Lord _ our|God,||||||Where-|fore _ praise|ye _ _ the|
 (^D4 ^C4) B,4 | F8 F4 | (G4 F4) E4 | ^D8 E4 | E4 ^D8 | E8 |] %26
w: ev- * ’ry-|where, Set|forth, _ set|forth his|no- ble|praise:|
w: Lord _ our|God, Praise|ye, _ praise|ye the|Lord al-|way.|
V:3
 E4 | (E4 F4) G4 | F8 B4 | A4 F8 | E8 E4 | (B4 c4) d4 | (e4 ^d4) e4 | B8 z4 | z12 | z12 | z12 | %11
w: O|all _ ye|na- tions|of the|world, Praise|ye _ the|Lord _ al-|ways;||||
w: For|great _ his|kind- ness|is to|us, His|truth _ doth|not _ de-|cay;||||
 z12 | z12 | z12 | z8 || z4 | z8 B4 | (G3 B A2 B2) (c A3) | (B4 A4) G4 | (G4 F4) E4 | B12- | B12- | %22
w: |||||And|all _ _ _ ye _|peo- * ple|ev- * ’ry-|where,|_|
w: |||||Where-|fore _ _ _ praise _|ye _ the|Lord _ our|God,|_|
 B8 E4 | (G3 A B2 G2) (A B3) | (c4 B4) B4 | B8 |] %26
w: * Set|forth _ _ _ his _|no- * ble|praise:|
w: * Praise|ye _ _ _ the _|Lord _ al-|way.|
V:4
 E,4 | (E,4 ^D,4) E,4 | (B,,4 A,,4) G,,4 | A,,4 B,,8 | E,8 z4 | z12 | z12 | z12 | z12 | z12 | z12 | %11
w: O|all _ ye|na- * tions|of the|world,|||||||
w: For|great _ his|kind- * ness|is to|us,|||||||
 z8 B,,4 | (E,4 D,4) C,4 | A,,4 B,,8 | E,8 || E,4 | (B, G,3 A,4) (B, G,3) | %17
w: Set|forth _ his|no- ble|praise,|And|all _ _ ye _|
w: Praise|ye _ the|Lord al-|way,|Where-|fore _ _ praise _|
 (E,3 G, F,2 G,2) (A, F,3) | (G,4 F,4) E,4 | B,,12- | %20
w: peo- * * * ple _|ev- * ’ry-|where,|
w: ye _ _ _ the _|Lord _ our|God,|
"^Notes:The alto part is printed in the source in the treble clef, an octave above sounding pitch. No indication is given ofthe text other than the heading 'Psalm ye 117th', or of how this text should be underlaid. As the psalm tunes in thebook either specify that New Version texts should be used, or do not specify a version, it has been assumed thatfor this tune, the Old Version text should be used. For this reason, the two verses of the Old Version text of Ps. 117,by Thomas Norton, have been underlaid editorially." B,,12- | %21
w: _|
w: _|
 B,,8 B,,4 | (E,4 D,4) C,4 | B,,8 E,4 | A,,4 B,,8 | E,8 |] %26
w: * Set|forth, _ set|forth his|no- ble|praise:|
w: * Praise|ye, _ praise|ye the|Lord al-|way.|

